docs/local/img/sprites/ig.svg

<svg width="20" height="20" viewBox="0 0 20 20" xmlns="http://www.w3.org/2000/svg">
<path d="M14.4241 0.369141H5.57626C2.69666 0.369141 0.354004 2.71179 0.354004 5.59139V14.4393C0.354004 17.3188 2.69666 19.6614 5.57626 19.6614H14.4242C17.3037 19.6614 19.6463 17.3188 19.6463 14.4393V5.59139C19.6463 2.71179 17.3037 0.369141 14.4241 0.369141ZM10.0002 15.2904C7.09142 15.2904 4.72506 12.924 4.72506 10.0153C4.72506 7.10655 7.09142 4.7402 10.0002 4.7402C12.9089 4.7402 15.2753 7.10655 15.2753 10.0153C15.2753 12.924 12.9089 15.2904 10.0002 15.2904ZM15.4014 5.98424C14.5418 5.98424 13.8427 5.28509 13.8427 4.42551C13.8427 3.56593 14.5418 2.86664 15.4014 2.86664C16.261 2.86664 16.9603 3.56593 16.9603 4.42551C16.9603 5.28509 16.261 5.98424 15.4014 5.98424Z"/>
<path d="M10.0002 5.8712C7.7152 5.8712 5.85606 7.73019 5.85606 10.0153C5.85606 12.3003 7.7152 14.1594 10.0002 14.1594C12.2853 14.1594 14.1443 12.3003 14.1443 10.0153C14.1443 7.73019 12.2853 5.8712 10.0002 5.8712Z"/>
<path d="M15.4014 3.99778C15.1656 3.99778 14.9737 4.18972 14.9737 4.42551C14.9737 4.66131 15.1656 4.85324 15.4014 4.85324C15.6373 4.85324 15.8293 4.66146 15.8293 4.42551C15.8293 4.18957 15.6373 3.99778 15.4014 3.99778Z"/>
</svg>

<svg width="20" height="20" viewBox="0 0 20 20" xmlns="http://www.w3.org/2000/svg"><path d="M14.424.37H5.576A5.228 5.228 0 00.354 5.59v8.848a5.228 5.228 0 005.222 5.222h8.848a5.228 5.228 0 005.222-5.222V5.591A5.228 5.228 0 0014.424.37zM10 15.29a5.281 5.281 0 01-5.275-5.275A5.281 5.281 0 0110 4.74a5.281 5.281 0 015.275 5.275A5.281 5.281 0 0110 15.29zm5.401-9.306a1.56 1.56 0 010-3.118 1.56 1.56 0 010 3.118z"/><path d="M10 5.871a4.149 4.149 0 00-4.144 4.144A4.149 4.149 0 0010 14.16a4.149 4.149 0 004.144-4.144A4.149 4.149 0 0010 5.871zm5.401-1.873a.428.428 0 10.002.856.428.428 0 00-.002-.856z"/></svg>
